styles/mysource_files/icon-edit.svg

<?xml version="1.0" encoding="UTF-8" standalone="no"?>
<svg width="20px" height="20px" viewBox="0 0 20 20" version="1.1" xmlns="http://www.w3.org/2000/svg" xmlns:xlink="http://www.w3.org/1999/xlink">
    <!-- Generator: sketchtool 40.2 (33826) - http://www.bohemiancoding.com/sketch -->
    <title>C88624BA-8402-4017-A36A-44D7BCAA937E</title>
    <desc>Created with sketchtool.</desc>
    <defs></defs>
    <g id="Desktop" stroke="none" stroke-width="1" fill="none" fill-rule="evenodd">
        <g id="01_Home" transform="translate(-146.000000, -100.000000)">
            <g id="Group-11" transform="translate(0.000000, -30.000000)">
                <g id="Group-34" transform="translate(46.000000, 61.000000)">
                    <g id="pencil43" transform="translate(100.000000, 69.000000)">
                        <circle id="Oval" fill="#FFFFFF" cx="10" cy="10" r="10"></circle>
                        <path d="M14.634335,8.01789657 L14.1923694,8.46006827 L11.5403491,5.80841888 L11.9823147,5.36620596 C12.4705275,4.87793135 13.2622322,4.87793135 13.7504862,5.36620596 L14.634335,6.25028145 C15.1218883,6.73828814 15.1218883,7.52966317 14.634335,8.01789657 L14.634335,8.01789657 Z M8.44654859,13.3208656 C8.32450055,13.4429136 8.32450055,13.6405771 8.44654859,13.7626457 C8.56865847,13.8853739 8.76642494,13.8853739 8.88847298,13.7626457 L13.7504862,8.90197205 L13.308026,8.45975913 L8.44654859,13.3208656 L8.44654859,13.3208656 Z M6.23655568,11.1113879 C6.1144458,11.233539 6.1144458,11.43112 6.23655568,11.5532505 C6.35860372,11.6753191 6.55637019,11.6753191 6.67848007,11.5532505 L11.5403491,6.69220583 L11.0985689,6.25028145 L6.23655568,11.1113879 L6.23655568,11.1113879 Z M11.9817376,7.13380048 L7.12030141,11.9951336 C6.87618471,12.2387763 6.87680299,12.6348657 7.12030141,12.8789824 C7.36452116,13.1231197 7.75997166,13.1242532 8.00472725,12.8783229 L12.8661635,8.01789657 L11.9817376,7.13380048 L11.9817376,7.13380048 Z M8.00347008,14.2034366 C7.85399111,14.0537721 7.78194113,13.8641051 7.75512849,13.6686675 C7.69159013,13.6784775 7.62759838,13.6876074 7.5622258,13.6876074 C7.22831455,13.6876074 6.91470342,13.5570889 6.67848007,13.3208656 C6.44225671,13.0840446 6.31225349,12.7708662 6.31225349,12.4369962 C6.31225349,12.3761164 6.3213834,12.3167824 6.32995685,12.2576338 C6.12792426,12.2301204 5.94118374,12.1416243 5.79469312,11.9951336 C5.7806376,11.9811812 5.77579442,11.9622413 5.76299607,11.9469492 L5,14.9998609 L8.04497714,14.2376067 C8.03156051,14.2253855 8.01637148,14.2162349 8.00347008,14.2034366 L8.00347008,14.2034366 Z" id="Shape" fill="#840B14"></path>
                    </g>
                </g>
            </g>
        </g>
    </g>
</svg>

<svg width="20" height="20" viewBox="0 0 20 20" xmlns="http://www.w3.org/2000/svg"><title>C88624BA-8402-4017-A36A-44D7BCAA937E</title><g fill="none" fill-rule="evenodd"><circle fill="#FFF" cx="10" cy="10" r="10"/><path d="M14.634 8.018l-.442.442-2.652-2.652.442-.442a1.25 1.25 0 0 1 1.768 0l.884.884a1.25 1.25 0 0 1 0 1.768zM8.447 13.32a.312.312 0 1 0 .441.442l4.862-4.861-.442-.442-4.861 4.86zm-2.21-2.21a.312.312 0 1 0 .441.442l4.862-4.86-.441-.443-4.862 4.861zm5.745-3.977L7.12 11.995a.625.625 0 0 0 .885.883l4.861-4.86-.884-.884zm-3.979 7.07a.912.912 0 0 1-.248-.535c-.063.01-.127.019-.193.019a1.24 1.24 0 0 1-.884-.367 1.243 1.243 0 0 1-.366-.884c0-.06.01-.12.018-.18a.927.927 0 0 1-.535-.262c-.014-.014-.02-.033-.032-.048L5 15l3.045-.762c-.013-.013-.029-.022-.042-.035z" fill="#840B14"/></g></svg>
